exported-svg/circle.svg

<svg height="24" viewBox="0 0 24 24" width="24" xmlns="http://www.w3.org/2000/svg"><path d="m11.5 23c5.7989899 0 10.5-4.7010101 10.5-10.5 0-5.79898987-4.7010101-10.5-10.5-10.5-5.79898987 0-10.5 4.70101013-10.5 10.5 0 5.7989899 4.70101013 10.5 10.5 10.5zm0-1c-5.24670512 0-9.5-4.2532949-9.5-9.5 0-5.24670512 4.25329488-9.5 9.5-9.5 5.2467051 0 9.5 4.25329488 9.5 9.5 0 5.2467051-4.2532949 9.5-9.5 9.5z"/></svg>

<?xml version="1.0" encoding="UTF-8"?>
<svg width="24px" height="24px" viewBox="0 0 24 24" version="1.1" xmlns="http://www.w3.org/2000/svg" xmlns:xlink="http://www.w3.org/1999/xlink">
    <!-- Generator: Sketch 55.2 (78181) - https://sketchapp.com -->
    <title>circle</title>
    <desc>Created with Sketch.</desc>
    <g id="circle" stroke="none" stroke-width="1" fill="none" fill-rule="evenodd">
        <path d="M11.5,23 C17.2989899,23 22,18.2989899 22,12.5 C22,6.70101013 17.2989899,2 11.5,2 C5.70101013,2 1,6.70101013 1,12.5 C1,18.2989899 5.70101013,23 11.5,23 Z M11.5,22 C6.25329488,22 2,17.7467051 2,12.5 C2,7.25329488 6.25329488,3 11.5,3 C16.7467051,3 21,7.25329488 21,12.5 C21,17.7467051 16.7467051,22 11.5,22 Z" id="Oval" fill="#000000" fill-rule="nonzero"></path>
    </g>
</svg>
